X:8
T:Vind i Seglen (Snoa, G\aangl\aat)
C:F.J.Aalto
%O:Sweden
R:Snoa, G\aangl\aat
Z:Bob Wyttenbach 8/13/02 from NFF 2001 tunebook
M:2/4
L:1/8
%Q:1/4=120
K:D
P:A
"D"a>a aa|"A7"gf/g/ ag|"D"f>d dB|A2dA|
"A7"c>d ef|gd cB|"D"A>d df|a^g/a/ b/a/f/d/|
"D"a>a aa|"A7"gf/g/ ag|"D"f>d dB|A2dA|
"A7"cc/d/ ee/f/|ge cB|Ag Bc|"D"d3A:|
P:B
"D"LF2"A7"LAG/A/|.G.E "D"Fc/d/|"A7"ee/c/ AG/A/|"D"dd/A/ F/G/F/E/|
"D"LF2"A7"LAG/A/|.G.E "D"Fc/d/|"A7"ee/c/ A/c/B/c/|[1"D"d3A:|[2d3"A7"f/g/||
